exported-svg/chevron-left.svg

<svg height="24" viewBox="0 0 24 24" width="24" xmlns="http://www.w3.org/2000/svg"><path d="m10.2071068 12.5 5.6464466-5.64644661c.1952621-.19526215.1952621-.51184463 0-.70710678-.1952622-.19526215-.5118446-.19526215-.7071068 0l-5.99999999 5.99999999c-.19526215.1952622-.19526215.5118446 0 .7071068l5.99999999 6c.1952622.1952621.5118446.1952621.7071068 0 .1952621-.1952622.1952621-.5118446 0-.7071068z"/></svg>

<?xml version="1.0" encoding="UTF-8"?>
<svg width="24px" height="24px" viewBox="0 0 24 24" version="1.1" xmlns="http://www.w3.org/2000/svg" xmlns:xlink="http://www.w3.org/1999/xlink">
    <!-- Generator: Sketch 55.2 (78181) - https://sketchapp.com -->
    <title>chevron-left</title>
    <desc>Created with Sketch.</desc>
    <g id="chevron-left" stroke="none" stroke-width="1" fill="none" fill-rule="evenodd">
        <path d="M10.2071068,12.5 L15.8535534,6.85355339 C16.0488155,6.65829124 16.0488155,6.34170876 15.8535534,6.14644661 C15.6582912,5.95118446 15.3417088,5.95118446 15.1464466,6.14644661 L9.14644661,12.1464466 C8.95118446,12.3417088 8.95118446,12.6582912 9.14644661,12.8535534 L15.1464466,18.8535534 C15.3417088,19.0488155 15.6582912,19.0488155 15.8535534,18.8535534 C16.0488155,18.6582912 16.0488155,18.3417088 15.8535534,18.1464466 L10.2071068,12.5 Z" id="Shape" fill="#000000" fill-rule="nonzero"></path>
    </g>
</svg>
